X: 30315
T: Old Man Quinn
R: hornpipe
M: 4/4
K: Dmajor
AG|:FDFA dfed|cged cAGE|FAdf gfed|c2 A2 A2 AG|
FDFA dfed|cged cAGE|FdBG FAEA|1 F2 D2 D2 AG:|2 F2 D2 D2 Ad||
|:fAdf afed|eAce gedc|dcBA Gfed|c2 A2 A2 AG|
FDFA dfed|cged cAGE|FdBG FAEA|1 F2 D2 D2 Ad:|2 F2 D2 D2 AG||
|:FGEF DFAd|cdBc Aceg|fdef gfed|c2 A2 A3 d|
cdBd AdGd|Fdcd BdGd|FdBG fAeA|F2 D2 D2 AG:|

